X: 41292
T: Tumbledown
R: jig
M: 6/8
K: Eminor
D|:~E3 EFG|FED GFG|ABc BAG|AGF GFD|
~E3 EFG|FED dAF|GFE DEF|~E3 E2D:|
|:~E3 d2c-|cB2 ~A2F|GAB AGF|GFE FED|
~E3 d2c-|cB2 ~A2F|GFE DEF|~E3 E2D:|

